svg/nature/dragonfly_fill.svg

<?xml version="1.0" encoding="UTF-8"?>
<svg width="24px" height="24px" viewBox="0 0 24 24" version="1.1" xmlns="http://www.w3.org/2000/svg" xmlns:xlink="http://www.w3.org/1999/xlink">
    <title>dragonfly_fill</title>
    <g id="Icon" stroke="none" stroke-width="1" fill="none" fill-rule="evenodd">
        <g id="Nature" transform="translate(-144.000000, -144.000000)" fill-rule="nonzero">
            <g id="dragonfly_fill" transform="translate(144.000000, 144.000000)">
                <path d="M24,0 L24,24 L0,24 L0,0 L24,0 Z M12.5935,23.2578 L12.5819,23.2595 L12.5109,23.295 L12.4919,23.2987 L12.4767,23.295 L12.4057,23.2595 C12.3958,23.2564 12.387,23.259 12.3821,23.2649 L12.378,23.2758 L12.3609,23.7031 L12.3659,23.7235 L12.3769,23.7357 L12.4805,23.8097 L12.4953,23.8136 L12.5071,23.8097 L12.6107,23.7357 L12.6233,23.7197 L12.6267,23.7031 L12.6096,23.2758 C12.6076,23.2657 12.601,23.2593 12.5935,23.2578 Z M12.8584,23.1453 L12.8445,23.1473 L12.6598,23.2397 L12.6499,23.2499 L12.6472,23.2611 L12.6651,23.6906 L12.6699,23.7034 L12.6784,23.7105 L12.8793,23.8032 C12.8914,23.8069 12.9022,23.803 12.9078,23.7952 L12.9118,23.7812 L12.8777,23.1665 C12.8753,23.1546 12.8674,23.147 12.8584,23.1453 Z M12.143,23.1473 C12.1332,23.1424 12.1222,23.1453 12.1156,23.1526 L12.1099,23.1665 L12.0758,23.7812 C12.0751,23.7927 12.0828,23.8019 12.0926,23.8046 L12.1083,23.8032 L12.3092,23.7105 L12.3186,23.7024 L12.3225,23.6906 L12.3404,23.2611 L12.3372,23.2485 L12.3278,23.2397 L12.143,23.1473 Z" id="MingCute"></path>
                <path d="M9.05131,4.68404 C9.22596,4.1601 9.79228,3.87694 10.3162,4.05159 C10.9726,4.27036 11.48,4.62949 11.8618,5.0038 C11.9075,5.00144 11.9536,5.00024 12,5.00024 C12.0464,5.00024 12.0925,5.00144 12.1382,5.0038 C12.52,4.62949 13.0274,4.27036 13.6838,4.05159 C14.2077,3.87694 14.774,4.1601 14.9487,4.68404 C15.1233,5.20799 14.8402,5.77431 14.3162,5.94895 C14.235,5.97604 14.1578,6.00773 14.0844,6.04326 C14.1814,6.17255 14.2664,6.31082 14.3382,6.45629 L18.6164,5.50557 C20.3528,5.1197 22,6.44103 22,8.21982 C22,8.68157 21.8874,9.11703 21.6883,9.50026 C21.8874,9.88349 22,10.3189 22,10.7807 C22,12.5595 20.3528,13.8808 18.6164,13.4949 L13.3643,12.3278 C13.2725,12.5356 13.1422,12.706 12.9871,12.8392 C12.9956,12.8916 13,12.9454 13,13.0002 L13,19.0002 C13,19.5525 12.5523,20.0002 12,20.0002 C11.4477,20.0002 11,19.5525 11,19.0002 L11,13.0002 C11,12.9454 11.0044,12.8916 11.0129,12.8392 C10.8578,12.706 10.7275,12.5356 10.6357,12.3278 L5.38362,13.4949 C3.64719,13.8808 2,12.5595 2,10.7807 C2,10.3189 2.11256,9.88349 2.31173,9.50026 C2.11256,9.11703 2,8.68157 2,8.21982 C2,6.44103 3.64719,5.1197 5.38362,5.50557 L9.66182,6.45628 C9.73358,6.31081 9.81863,6.17254 9.91554,6.04326 C9.84221,6.00773 9.76502,5.97604 9.68377,5.94895 C9.15983,5.77431 8.87667,5.20799 9.05131,4.68404 Z" id="路径" fill="#09244B"></path>
            </g>
        </g>
    </g>
</svg>

<svg xmlns="http://www.w3.org/2000/svg" width="24" height="24"><g fill="none" fill-rule="nonzero"><path d="M24 0v24H0V0h24ZM12.594 23.258l-.012.002-.071.035-.02.004-.014-.004-.071-.036c-.01-.003-.019 0-.024.006l-.004.01-.017.428.005.02.01.013.104.074.015.004.012-.004.104-.074.012-.016.004-.017-.017-.427c-.002-.01-.009-.017-.016-.018Zm.264-.113-.014.002-.184.093-.01.01-.003.011.018.43.005.012.008.008.201.092c.012.004.023 0 .029-.008l.004-.014-.034-.614c-.003-.012-.01-.02-.02-.022Zm-.715.002a.023.023 0 0 0-.027.006l-.006.014-.034.614c0 .012.007.02.017.024l.015-.002.201-.093.01-.008.003-.011.018-.43-.003-.012-.01-.01-.184-.092Z"/><path fill="#09244B" d="M9.051 4.684a1 1 0 0 1 1.265-.632 4.01 4.01 0 0 1 1.546.952 2.68 2.68 0 0 1 .276 0 4.01 4.01 0 0 1 1.546-.952 1 1 0 0 1 .632 1.897 1.942 1.942 0 0 0-.232.094c.097.13.182.268.254.413l4.278-.95A2.78 2.78 0 0 1 21.688 9.5a2.78 2.78 0 0 1-3.072 3.995l-5.252-1.167a1.43 1.43 0 0 1-.377.511c.009.053.013.106.013.161v6a1 1 0 1 1-2 0v-6c0-.055.004-.108.013-.16a1.43 1.43 0 0 1-.377-.512l-5.252 1.167A2.78 2.78 0 0 1 2.312 9.5a2.78 2.78 0 0 1 3.072-3.995l4.278.951c.072-.145.157-.283.254-.413a1.934 1.934 0 0 0-.232-.094 1 1 0 0 1-.633-1.265Z"/></g></svg>
